X: 1
T:The Grand Slam
M:4/4
L:1/8
S:(3) As Written
R:Reel
K:A
AB|"A"c<e e>f ecBA|"D"a>g fd "A"e2 fa|"A"c2 c>B "F#m"Afec|"B7"B2 B>c "E7
"B2 ed|!
"A"c<e e>f ecBA|"D"a>g fd "A"e2 A>B|"A"ce"D"fa "A"c<e "E7"d>B|"A"A2 "D"A
>B "A" A2 cd|!
e>A Ac eaga|"D"f>e df "A"e2 fa|"A"c2 c>B "F#m"Afec|"B7"B2 B>c "E7"B2 cd|
!
"A"e>A Ac eaga|"D"f>e fg "D#dim"a2 AB|"A"ce"D"fa "A"c<e "E7"d>B|A2 A>B A
2 cd|!
"A"e>A Ac eaga|"D"f>e fg "D#dim"a2 AB|"A"ce"D"fa "A"c<e "E7"d>B|A2 A>B A
2||

